X:1
L:1/8
M:6/8
K:Ador
 age e2 B | e2 B dBA | age fed | ege dBA :: B3 g3 | aba geg | dBB g3 | age dBA :: 
""^original from CRE II"" age e2 B | e2 B dBA | age fed | efe dBA | age e2 B | e2 B dBA | age fed | 
 efe dBA :: BAB gfg | aba geg | BAB gfg | age dBA | BAB gfg | aba geg | dBB gfg | age dBA :|
